X: 2
T:Pat Horgan's #1
M:2/4
L:1/8
S:Pog Band Circassian Circle Set
R:Polka
K:D
|:"D"D>E FA|"(Bm)"dc BA|"Em"BE EF|"A7"GA/G/ FE|
"D"D>E FA|"(Bm)"dc BA|"Em"Be "A7"Bc|"D"d2 d2:||
"Em"eB eB|eB B>c|"D"dA dA|dA A>B|
"Em"eB eB|eB B>c|"D"dB AF|1"A"E2 E2:|2"A"E4||
